X:1
T:SALUTE TO ANDREW STURDY
M:C|
L:1/8
Q:80
C:Gordon Taylor
S:Hornpipe
K:HP
|: {g}A3/4e/4{A}e3/4c/4{gcecG}c{g}c3/4d/4 | \
e3/4{g}e/4{A}e3/4f/4{a}g3/4f/4{g}e3/4d/4 | \
{g}G3/4d/4{c}d3/4B/4{gdedG}d{g}G/2B/4 |
{g}((3d3/4e/4{g}d/2c/2B/2){g}d3/4B/4{g}G3/4B/4 | \
{g}A3/4e/4{A}e3/4c/4{gcecG}c{g}c3/4d/4 | \
e3/4{g}e/4{A}e3/4f/4{a}g3/4f/4{g}e3/4d/4 |
{gcecG}ce3/4c/4{g}B3/4e/4{g}d3/4B/4 | \
{g}A3/4{d}A/4{e}A3/4B/4{G}A2 :: \
a3/4e/4{A}e3/4c/4{gcecG}c{g}c3/4d/4 |
e3/4{g}e/4{A}e3/4f/4{a}g3/4f/4{g}e3/4f/4 | \
{a}g3/4d/4{G}d3/4B/4{G}B3/4d/4{G}d3/4B/4 | \
{g}((3d3/4e/4{g}d/2c/2B/2){g}d3/4B/4{g}G3/4B/4 |
a3/4e/4{A}e3/4c/4{gcecG}c{g}c3/4d/4 | \
e3/4{g}e/4{A}e3/4f/4{a}g3/4f/4{g}e3/4d/4 | \
{gcecG}ce3/4c/4{g}B3/4e/4{g}d3/4B/4 |
{g}A3/4{d}A/4{e}A3/4B/4{G}A2 :| \
{g}c3/4B/4 |: \
{g}A3/4e/4{A}e3/4c/4{gcecG}c{g}c3/4B/4 |
{g}A3/4e/4{A}e3/4c/4{Gdc}((3d{g}e/2f/2g/2) | \
a3/4e/4{A}e3/4a/4{fg}f3/4e/4{g}d3/4c/4 | \
{g}B3/4c/4{g}d3/4c/4{g}B{g}c3/4B/4 |
{g}A3/4e/4{A}e3/4c/4{gcecG}c{g}c3/4B/4 | \
{g}A3/4e/4{A}e3/4c/4{Gdc}d{g}d3/4B/4 | \
{gcecG}ce3/4c/4{g}B3/4e/4{g}d3/4B/4 |
{g}A3/4{d}A/4{e}A3/4B/4{G}A :| \
{g}f3/4g/4 |: \
a3/4{a}a/4{a}a3/4e/4{A}e3/4f/4{g}c3/4B/4 |
{gcecG}c{g}c3/4B/4{gAGAG}A{g}f3/4g/4 | \
a3/4{a}a/4{a}a3/4e/4{A}e3/4f/4{g}c3/4B/4 | \
d3/4{g}d/4{c}d3/4c/4{g}B2 |
{g}A3/4{d}c/4{gcecG}c{g}c3/4B/4{g}A3/4{d}c/4 | \
{gdedG}d{g}d3/4e/4f2 | \
a3/4{a}a/4{a}a3/4e/4{A}e3/4f/4{gcd}c3/4B/4 |
{g}A3/4{d}A/4{e}A3/4B/4{G}A :|
